X:115
T:The Fire Fighter's Schottische
R:schottis
C:Bruce Osborne - June 2002
Z:bosborne@kos.net
M:2/4
L:1/8
K:Bb
F/E/|D/F/B/c/ d/B/F/B/|D/F/B/c/ d/B/F/d/|c/B/c/d/ e/g/f/e/|d/c/d/e/ fF/E/|
D/F/B/c/ d/B/F/B/|D/F/B/c/ d/B/F/d/|c/B/c/d/ e/c/A/c/|B/A/d/c/ B:|
|:F/E/|D/F/B/d/ f/d/B/F/|D/F/B/d/ f/d/B/F/|E/G/B/e/ g/e/B/G/|E/G/B/e/ g/e/B/G/|
D/F/B/d/ f/d/B/F/|D/F/B/d/ f/d/B/F/|C/F/A/c/ e/c/A/c/|B/d/c/A/ B:|
